src/pos-icons/crosshairs-off.svg

<svg height="24" viewBox="0 0 24 24" width="24" xmlns="http://www.w3.org/2000/svg"><path d="m20.94 11c-.44-4.17-3.77-7.5-7.94-7.94v-2.06h-2v2.06c-1.13.12-2.19.44-3.16.97l1.5 1.5c.82-.34 1.72-.53 2.66-.53 3.87 0 7 3.13 7 7 0 .94-.19 1.84-.5 2.65l1.5 1.5c.5-.96.82-2.02.95-3.15h2.05v-2zm-17.94-6.73 2.04 2.04c-1.07 1.31-1.79 2.92-1.98 4.69h-2.06v2h2.06c.44 4.17 3.77 7.5 7.94 7.94v2.06h2v-2.06c1.77-.2 3.38-.91 4.69-1.98l2.04 2.04 1.27-1.27-16.73-16.73zm13.27 13.27c-1.18.91-2.66 1.46-4.27 1.46-3.87 0-7-3.13-7-7 0-1.61.55-3.09 1.46-4.27z"/></svg>

<?xml version="1.0" encoding="UTF-8"?><!DOCTYPE svg PUBLIC "-//W3C//DTD SVG 1.1//EN" "http://www.w3.org/Graphics/SVG/1.1/DTD/svg11.dtd"><svg xmlns="http://www.w3.org/2000/svg" xmlns:xlink="http://www.w3.org/1999/xlink" version="1.1" id="mdi-crosshairs-off" width="24" height="24" viewBox="0 0 24 24"><path d="M20.94 11C20.5 6.83 17.17 3.5 13 3.06V1H11V3.06C9.87 3.18 8.81 3.5 7.84 4.03L9.34 5.53C10.16 5.19 11.06 5 12 5C15.87 5 19 8.13 19 12C19 12.94 18.81 13.84 18.5 14.65L20 16.15C20.5 15.19 20.82 14.13 20.95 13H23V11H20.94M3 4.27L5.04 6.31C3.97 7.62 3.25 9.23 3.06 11H1V13H3.06C3.5 17.17 6.83 20.5 11 20.94V23H13V20.94C14.77 20.74 16.38 20.03 17.69 18.96L19.73 21L21 19.73L4.27 3L3 4.27M16.27 17.54C15.09 18.45 13.61 19 12 19C8.13 19 5 15.87 5 12C5 10.39 5.55 8.91 6.46 7.73L16.27 17.54Z" /></svg>
